packages/synapse-interface/assets/chains/dfk.svg

<svg fill="none" height="48" viewBox="0 0 48 48" width="48" xmlns="http://www.w3.org/2000/svg" xmlns:xlink="http://www.w3.org/1999/xlink"><radialGradient id="a" cx="0" cy="0" gradientTransform="matrix(0 17.1 -17.1011 0 23.9989 24)" gradientUnits="userSpaceOnUse" r="1"><stop offset=".556" stop-color="#c2e76b"/><stop offset=".851" stop-color="#81bd00"/></radialGradient><clipPath id="b"><path d="m0 0h48v48h-48z"/></clipPath><g clip-path="url(#b)"><path d="m33.9422 48h-19.8844l-14.0578-14.0578v-19.8844l14.0578-14.0578h19.8822l14.06 14.0578v19.8822zm-18.64-3h17.3978l12.3022-12.3022v-17.3956l-12.3044-12.3022h-17.3956l-12.3022 12.3022v17.3978z" fill="#ffc629"/><path d="m38.1022 21.28v8.5622l-7.1133 7.1134-1.6845-4.0689 4.7289-4.7289v-1.2644h-2.9777-.0223v.0222l-4.12 4.12h-5.8266l-4.12-4.12v-5.8289l4.12-4.12h5.8266l4.12 4.12v.0378h.0378 2.9622v-1.28l-4.7289-4.7289 1.6845-4.0689 2.2333 2.2333c-.1044.3222-.1644.6667-.1644 1.0267 0 1.8289 1.4822 3.3111 3.3111 3.3111s3.3111-1.4822 3.3111-3.3111-1.4822-3.3111-3.3111-3.3111c-.3578 0-.7022.0578-1.0267.1644l-4.26-4.25998h-14.1666l-10.01782 10.01558v14.1666l10.01782 10.0178h14.1666l10.0178-10.0178v-9.8022zm-16.6355 12.7534h5.0644l1.6845 4.0688h-8.4334zm-2.7711-1.1489-1.6845 4.0689-5.9644-5.9645 4.0689-1.6844zm-4.7289-11.4178v5.0644l-4.06892 1.6845v-8.4334zm1.1466-2.7711-4.0689-1.6845 5.9645-5.9644 1.6844 4.0689zm4.6689-8.7978h8.4356l-1.6845 4.0689h-5.0666z" fill="url(#a)"/><path clip-rule="evenodd" d="m33.2222 13.28c-.1044.3222-.1644.6667-.1644 1.0267 0 1.8289 1.4822 3.3111 3.3111 3.3111s3.3111-1.4822 3.3111-3.3111-1.4822-3.3111-3.3111-3.3111c-.3578 0-.7022.0578-1.0267.1644l-4.26-4.25998h-14.1666l-10.01782 10.01558v14.1666l10.01782 10.0178h14.1666l10.0178-10.0178v-9.8022h-2.9978v8.5622l-7.1133 7.1134-1.6845-4.0689 4.7289-4.7289v-1.2644h-3v.0222l-4.12 4.12h-5.8266l-4.12-4.12v-5.8289l4.12-4.12h5.8266l4.12 4.12v.0378h3v-1.28l-4.7289-4.7289 1.6845-4.0689zm.3111 6.7716-4.8186-4.8187 2.0985-5.069 2.9791 2.9791-.0944.2912c-.0895.276-.1401.5685-.1401.8725 0 1.5527 1.2583 2.8111 2.8111 2.8111 1.5527 0 2.8111-1.2584 2.8111-2.8111 0-1.5528-1.2584-2.8111-2.8111-2.8111-.3035 0-.5953.0489-.8705.1394l-.2922.0961-4.3311-4.33108h-13.7525l-9.72482 9.72268v13.7524l9.72492 9.7249h13.7524l9.7249-9.7249v-9.0951h-1.9978v8.2694l-7.789 7.789-2.0985-5.0691 4.8186-4.8186v-.5573h-2.2706l-4.1423 4.1422h-6.2408l-4.4129-4.4129v-6.2431l4.4129-4.4129h6.2408l4.1578 4.1578h2.2551zm-12.4008 13.4818h5.7328l2.0984 5.0688h-9.9296zm-1.8472-.7663-2.0985 5.0691-7.0229-7.023 5.069-2.0985zm-4.8186-11.6346v5.7328l-5.06892 2.0984v-9.9296zm.764-1.8472-5.069-2.0985 7.0229-7.0229 2.0985 5.069zm3.8034-9.8875h9.9318l-2.0984 5.0689h-5.735zm2.4326 24.6356h5.0644l1.6845 4.0688h-8.4334zm-10.42-3.0445 4.0689-1.6844 3.58 3.58-1.6845 4.0689zm-1.14892-11.2067 4.06892 1.6845v5.0644l-4.06892 1.6845zm7.11112-8.7355 1.6844 4.0689-3.58 3.58-4.0689-1.6845zm11.2089-1.1489-1.6845 4.0689h-5.0666l-1.6845-4.0689z" fill="#7fbc03" fill-rule="evenodd"/></g></svg>

<svg width="48" height="48" viewBox="0 0 48 48" fill="none" xmlns="http://www.w3.org/2000/svg">
<g clip-path="url(#clip0_1277_1270)">
<path d="M33.9422 48H14.0578L0 33.9422V14.0578L14.0578 0H33.94L48 14.0578V33.94L33.9422 48ZM15.3022 45H32.7L45.0022 32.6978V15.3022L32.6978 3H15.3022L3 15.3022V32.7L15.3022 45Z" fill="#FFC629"/>
<path d="M38.1022 21.28V29.8422L30.9889 36.9556L29.3044 32.8867L34.0333 28.1578V26.8934H31.0556H31.0333V26.9156L26.9133 31.0356H21.0867L16.9667 26.9156V21.0867L21.0867 16.9667H26.9133L31.0333 21.0867V21.1245H31.0711H34.0333V19.8445L29.3044 15.1156L30.9889 11.0467L33.2222 13.28C33.1178 13.6022 33.0578 13.9467 33.0578 14.3067C33.0578 16.1356 34.54 17.6178 36.3689 17.6178C38.1978 17.6178 39.68 16.1356 39.68 14.3067C39.68 12.4778 38.1978 10.9956 36.3689 10.9956C36.0111 10.9956 35.6667 11.0534 35.3422 11.16L31.0822 6.90002H16.9156L6.89778 16.9156V31.0822L16.9156 41.1H31.0822L41.1 31.0822V21.28H38.1022ZM21.4667 34.0334H26.5311L28.2156 38.1022H19.7822L21.4667 34.0334ZM18.6956 32.8845L17.0111 36.9534L11.0467 30.9889L15.1156 29.3045L18.6956 32.8845ZM13.9667 21.4667V26.5311L9.89778 28.2156V19.7822L13.9667 21.4667ZM15.1133 18.6956L11.0444 17.0111L17.0089 11.0467L18.6933 15.1156L15.1133 18.6956ZM19.7822 9.8978H28.2178L26.5333 13.9667H21.4667L19.7822 9.8978Z" fill="url(#paint0_radial_1277_1270)"/>
<path fill-rule="evenodd" clip-rule="evenodd" d="M33.2222 13.28C33.1178 13.6022 33.0578 13.9467 33.0578 14.3067C33.0578 16.1356 34.54 17.6178 36.3689 17.6178C38.1978 17.6178 39.68 16.1356 39.68 14.3067C39.68 12.4778 38.1978 10.9956 36.3689 10.9956C36.0111 10.9956 35.6667 11.0534 35.3422 11.16L31.0822 6.90002H16.9156L6.89778 16.9156V31.0822L16.9156 41.1H31.0822L41.1 31.0822V21.28H38.1022V29.8422L30.9889 36.9556L29.3044 32.8867L34.0333 28.1578V26.8934H31.0333V26.9156L26.9133 31.0356H21.0867L16.9667 26.9156V21.0867L21.0867 16.9667H26.9133L31.0333 21.0867V21.1245H34.0333V19.8445L29.3044 15.1156L30.9889 11.0467L33.2222 13.28ZM33.5333 20.0516L28.7147 15.2329L30.8132 10.1639L33.7923 13.143L33.6979 13.4342C33.6084 13.7102 33.5578 14.0027 33.5578 14.3067C33.5578 15.8594 34.8161 17.1178 36.3689 17.1178C37.9216 17.1178 39.18 15.8594 39.18 14.3067C39.18 12.7539 37.9216 11.4956 36.3689 11.4956C36.0654 11.4956 35.7736 11.5445 35.4984 11.635L35.2062 11.7311L30.8751 7.40002H17.1226L7.39778 17.1227V30.8751L17.1227 40.6H30.8751L40.6 30.8751V21.78H38.6022V30.0494L30.8132 37.8384L28.7147 32.7693L33.5333 27.9507V27.3934H31.2627L27.1204 31.5356H20.8796L16.4667 27.1227V20.8796L20.8796 16.4667H27.1204L31.2782 20.6245H33.5333V20.0516ZM21.1325 33.5334H26.8653L28.9637 38.6022H19.0341L21.1325 33.5334ZM19.2853 32.7671L17.1868 37.8362L10.1639 30.8132L15.2329 28.7147L19.2853 32.7671ZM14.4667 21.1325V26.8653L9.39778 28.9637V19.0341L14.4667 21.1325ZM15.2307 19.2853L10.1617 17.1868L17.1846 10.1639L19.2831 15.2329L15.2307 19.2853ZM19.0341 9.3978H28.9659L26.8675 14.4667H21.1325L19.0341 9.3978ZM21.4667 34.0334H26.5311L28.2156 38.1022H19.7822L21.4667 34.0334ZM11.0467 30.9889L15.1156 29.3045L18.6956 32.8845L17.0111 36.9534L11.0467 30.9889ZM9.89778 19.7822L13.9667 21.4667V26.5311L9.89778 28.2156V19.7822ZM17.0089 11.0467L18.6933 15.1156L15.1133 18.6956L11.0444 17.0111L17.0089 11.0467ZM28.2178 9.8978L26.5333 13.9667H21.4667L19.7822 9.8978H28.2178Z" fill="#7FBC03"/>
</g>
<defs>
<radialGradient id="paint0_radial_1277_1270" cx="0" cy="0" r="1" gradientUnits="userSpaceOnUse" gradientTransform="translate(23.9989 24) rotate(90) scale(17.1 17.1011)">
<stop offset="0.556468" stop-color="#C2E76B"/>
<stop offset="0.850693" stop-color="#81BD00"/>
</radialGradient>
<clipPath id="clip0_1277_1270">
<rect width="48" height="48" fill="white"/>
</clipPath>
</defs>
</svg>
